icons/stairs-down-two-color.svg

<?xml version="1.0" encoding="UTF-8"?><svg xmlns="http://www.w3.org/2000/svg" viewBox="0 0 50 50"><g id="uuid-61b2963a-a324-46ae-aa8f-a2fb9c2f9660"><g><path d="M38.5,20.67c0,.28-.22,.5-.5,.5h-11.13v6.22c0,.28-.22,.5-.5,.5H15.25v6.22c0,.28-.22,.5-.5,.5H3.62v10.64H49.13V14.53h-10.63v6.14Z" fill="#ffcd00"/><g><path d="M47.88,11.78h-11.63c-.28,0-.5,.22-.5,.5v6.14h-11.13c-.28,0-.5,.22-.5,.5v6.22H13c-.28,0-.5,.22-.5,.5v6.22H1.37c-.28,0-.5,.22-.5,.5v11.64c0,.28,.22,.5,.5,.5H47.88c.28,0,.5-.22,.5-.5V12.28c0-.28-.22-.5-.5-.5Zm-.5,31.71H1.87v-10.64H13c.28,0,.5-.22,.5-.5v-6.22h11.13c.28,0,.5-.22,.5-.5v-6.22h11.13c.28,0,.5-.22,.5-.5v-6.14h10.63v30.71Z"/><path d="M7.36,16.32c.06,.11,.16,.18,.27,.22,.03,.01,.05,.03,.08,.04l7.89,2.4s.1,.02,.15,.02c.21,0,.41-.14,.48-.35,.08-.26-.07-.54-.33-.62l-6.79-2.07L28.33,5.7c.24-.13,.34-.43,.21-.68-.13-.25-.44-.34-.68-.21L8.55,15.12l2.09-6.86c.08-.26-.07-.54-.33-.62-.27-.08-.54,.07-.62,.33l-2.4,7.89c-.05,.15-.01,.3,.07,.42,0,.01,0,.03,.01,.04Z"/></g></g></g><g id="uuid-e34cc52c-97de-44a0-9e65-ddf5a20d4c75"><text transform="translate(-.16 55.05)" font-family="Roboto-Regular, Roboto" font-size="6"><tspan x="0" y="0">stairs-down</tspan></text></g></svg>

<svg xmlns="http://www.w3.org/2000/svg" viewBox="0 0 50 50"><g id="f733887b-1570-45b2-8479-ac4fe84d085a" data-name="ICONS"><path d="M38.5,20.67a.5.5,0,0,1-.5.5H26.87v6.21a.5.5,0,0,1-.5.5H15.25V34.1a.5.5,0,0,1-.5.5H3.62V45.24H49.13V14.53H38.5Z" fill="#fdd600"/><path d="M47.88,11.78H36.25a.5.5,0,0,0-.5.5v6.14H24.62a.5.5,0,0,0-.5.5v6.21H13a.5.5,0,0,0-.5.5v6.22H1.37a.5.5,0,0,0-.5.5V44a.5.5,0,0,0,.5.5H47.88a.5.5,0,0,0,.5-.5V12.28A.5.5,0,0,0,47.88,11.78Zm-.5,31.71H1.87V32.85H13a.5.5,0,0,0,.5-.5V26.13H24.62a.5.5,0,0,0,.5-.5V19.42H36.25a.5.5,0,0,0,.5-.5V12.78H47.38Z" fill="#231f20"/><path d="M7.36,16.32a.49.49,0,0,0,.27.22l.08,0L15.6,19l.15,0a.49.49,0,0,0,.47-.35.5.5,0,0,0-.33-.63L9.1,16,28.33,5.7a.5.5,0,0,0,.2-.68.49.49,0,0,0-.67-.2L8.55,15.12l2.09-6.86a.5.5,0,1,0-1-.29l-2.4,7.89a.53.53,0,0,0,.07.42A.08.08,0,0,0,7.36,16.32Z" fill="#231f20"/></g><g id="b3dc47f9-e877-44c7-b85a-d28d57ad0775" data-name="LABELS"><text transform="translate(-0.16 55.05)" font-size="6" fill="#231f20" font-family="Roboto-Regular, Roboto">stairs-down</text></g></svg>
